X: 4003
M: C
L: 1/8
K: A
E<A A>B c>BA>B | c<e e>f e3 A |\
E<A A>B c>BA>E | F<B B>c B3 A |\
E<A A>B c>BA>B | c<e e>f e3 e |\
a>gf>e (3fed (3cBA | F<B B>d B3 |
d |\
c<e e>f a>ec>A | c<e e>f e3 d |\
c<e e>f agfe dcBA | F<B B>c B3 d |\
c<e e>f a>ec>A | c<e e>f e3 e |\
a>gf>e agfe dcBA | F<B G<e A3 |]


